src/components/Icon/svg-icon/main/key.svg

<svg xmlns="http://www.w3.org/2000/svg" xmlns:xlink="http://www.w3.org/1999/xlink" width="24" height="24" viewBox="0 0 24 24">
  <defs>
    <path id="key-a" d="M20.75,9.5 L11.3309375,9.5 C10.46625,8.005625 8.850625,7 7,7 C4.23875,7 2,9.2384375 2,12 C2,14.7615625 4.2384375,17 7,17 C8.850625,17 10.46625,15.994375 11.3309375,14.5 L12,14.5 L13.25,13.25 L14.5,13.25 L14.5,14.5 L15.75,14.5 L17,13.25 L18.25,13.25 L18.25,14.5 L19.5,14.5 L22,12 L20.75,9.5 Z M5.75,13.7678125 C4.77375,13.7678125 3.9821875,12.97625 3.9821875,12 C3.9821875,11.02375 4.77375,10.2321875 5.75,10.2321875 C6.72625,10.2321875 7.5178125,11.02375 7.5178125,12 C7.5178125,12.97625 6.72625,13.7678125 5.75,13.7678125 Z M12,11.375 L12,10.75 L19.5,10.75 L19.8125,11.375 L12,11.375 Z"/>
  </defs>
  <use fill="#677078" xlink:href="#key-a"/>
</svg>

<svg xmlns="http://www.w3.org/2000/svg" xmlns:xlink="http://www.w3.org/1999/xlink" width="24" height="24"><defs><path id="a" d="M20.75 9.5h-9.42a5 5 0 100 5H12l1.25-1.25h1.25v1.25h1.25L17 13.25h1.25v1.25h1.25L22 12l-1.25-2.5zm-15 4.268a1.768 1.768 0 110-3.536 1.768 1.768 0 010 3.536zM12 11.375v-.625h7.5l.313.625H12z"/></defs><use fill="#677078" xlink:href="#a"/></svg>
